ids-wordpress/site-IdS/assets/images/icones redes sociais/linkedin-branco.svg

<svg width="24" height="24" viewBox="0 0 24 24" fill="none" xmlns="http://www.w3.org/2000/svg">
<g clip-path="url(#clip0_627_739)">
<path fill-rule="evenodd" clip-rule="evenodd" d="M20.25 2.25H3.75C2.92157 2.25 2.25 2.92157 2.25 3.75V20.25C2.25 21.0784 2.92157 21.75 3.75 21.75H20.25C21.0784 21.75 21.75 21.0784 21.75 20.25V3.75C21.75 2.92157 21.0784 2.25 20.25 2.25ZM20.25 20.25H3.75V3.75H20.25V20.25ZM9 10.5V16.5C9 16.9142 8.66421 17.25 8.25 17.25C7.83579 17.25 7.5 16.9142 7.5 16.5V10.5C7.5 10.0858 7.83579 9.75 8.25 9.75C8.66421 9.75 9 10.0858 9 10.5ZM17.25 13.125V16.5C17.25 16.9142 16.9142 17.25 16.5 17.25C16.0858 17.25 15.75 16.9142 15.75 16.5V13.125C15.75 12.0895 14.9105 11.25 13.875 11.25C12.8395 11.25 12 12.0895 12 13.125V16.5C12 16.9142 11.6642 17.25 11.25 17.25C10.8358 17.25 10.5 16.9142 10.5 16.5V10.5C10.5019 10.1198 10.7881 9.80112 11.166 9.75852C11.5438 9.71592 11.8938 9.96285 11.9803 10.3331C13.0142 9.63174 14.351 9.55891 15.455 10.1438C16.559 10.7287 17.2496 11.8756 17.25 13.125ZM9.375 7.875C9.375 8.49632 8.87132 9 8.25 9C7.62868 9 7.125 8.49632 7.125 7.875C7.125 7.25368 7.62868 6.75 8.25 6.75C8.87132 6.75 9.375 7.25368 9.375 7.875Z" fill="#F3F3F5"/>
</g>
<defs>
<clipPath id="clip0_627_739">
<rect width="24" height="24" fill="white"/>
</clipPath>
</defs>
</svg>

<svg xmlns="http://www.w3.org/2000/svg" width="24" height="24" fill="none"><g clip-path="url(#a)"><path fill="#F3F3F5" fill-rule="evenodd" d="M20.25 2.25H3.75a1.5 1.5 0 0 0-1.5 1.5v16.5a1.5 1.5 0 0 0 1.5 1.5h16.5a1.5 1.5 0 0 0 1.5-1.5V3.75a1.5 1.5 0 0 0-1.5-1.5Zm0 18H3.75V3.75h16.5v16.5ZM9 10.5v6a.75.75 0 0 1-1.5 0v-6a.75.75 0 0 1 1.5 0Zm8.25 2.625V16.5a.75.75 0 0 1-1.5 0v-3.375a1.875 1.875 0 0 0-3.75 0V16.5a.75.75 0 0 1-1.5 0v-6a.75.75 0 0 1 1.48-.167 3.375 3.375 0 0 1 5.27 2.792Zm-7.875-5.25a1.125 1.125 0 1 1-2.25 0 1.125 1.125 0 0 1 2.25 0Z" clip-rule="evenodd"/></g><defs><clipPath id="a"><path fill="#fff" d="M0 0h24v24H0z"/></clipPath></defs></svg>
